Newaita/actions/scalable/format-connect-node.svg

<?xml version="1.0" encoding="UTF-8"?>
<svg xmlns="http://www.w3.org/2000/svg" xmlns:xlink="http://www.w3.org/1999/xlink" width="512pt" height="512pt" viewBox="0 0 512 512" version="1.1">
<g id="surface1">
<path style=" stroke:none;fill-rule:nonzero;fill:rgb(25.882354%,25.882354%,25.882354%);fill-opacity:1;" d="M 52.921875 342.699219 C 35.332031 342.699219 21.167969 356.859375 21.167969 374.453125 L 21.167969 459.125 C 21.167969 476.71875 35.332031 490.878906 52.921875 490.878906 L 137.597656 490.878906 C 155.1875 490.878906 169.347656 476.71875 169.347656 459.125 L 169.347656 374.453125 C 169.347656 356.859375 155.1875 342.699219 137.597656 342.699219 Z M 63.507812 374.453125 L 127.011719 374.453125 C 132.875 374.453125 137.597656 379.171875 137.597656 385.035156 L 137.597656 448.542969 C 137.597656 454.40625 132.875 459.125 127.011719 459.125 L 63.507812 459.125 C 57.640625 459.125 52.921875 454.40625 52.921875 448.542969 L 52.921875 385.035156 C 52.921875 379.171875 57.640625 374.453125 63.507812 374.453125 Z M 63.507812 374.453125 "/>
<path style=" stroke:none;fill-rule:nonzero;fill:rgb(25.882354%,25.882354%,25.882354%);fill-opacity:1;" d="M 370.453125 342.699219 C 352.859375 342.699219 338.699219 356.859375 338.699219 374.453125 L 338.699219 459.125 C 338.699219 476.71875 352.859375 490.878906 370.453125 490.878906 L 455.125 490.878906 C 472.71875 490.878906 486.878906 476.71875 486.878906 459.125 L 486.878906 374.453125 C 486.878906 356.859375 472.71875 342.699219 455.125 342.699219 Z M 381.035156 374.453125 L 444.542969 374.453125 C 450.40625 374.453125 455.125 379.171875 455.125 385.035156 L 455.125 448.542969 C 455.125 454.40625 450.40625 459.125 444.542969 459.125 L 381.035156 459.125 C 375.171875 459.125 370.453125 454.40625 370.453125 448.542969 L 370.453125 385.035156 C 370.453125 379.171875 375.171875 374.453125 381.035156 374.453125 Z M 381.035156 374.453125 "/>
<path style=" stroke:none;fill-rule:nonzero;fill:rgb(25.882354%,25.882354%,25.882354%);fill-opacity:1;" d="M 211.6875 400.914062 L 169.347656 400.914062 L 169.347656 432.667969 L 338.699219 432.667969 L 338.699219 400.914062 Z M 211.6875 400.914062 "/>
<path style=" stroke:none;fill-rule:nonzero;fill:rgb(25.882354%,25.882354%,25.882354%);fill-opacity:1;" d="M 52.921875 25.167969 C 35.332031 25.167969 21.167969 39.332031 21.167969 56.921875 L 21.167969 141.597656 C 21.167969 159.1875 35.332031 173.351562 52.921875 173.351562 L 137.597656 173.351562 C 155.1875 173.351562 169.347656 159.1875 169.347656 141.597656 L 169.347656 56.921875 C 169.347656 39.332031 155.1875 25.167969 137.597656 25.167969 Z M 63.507812 56.921875 L 127.011719 56.921875 C 132.875 56.921875 137.597656 61.640625 137.597656 67.507812 L 137.597656 131.011719 C 137.597656 136.875 132.875 141.597656 127.011719 141.597656 L 63.507812 141.597656 C 57.640625 141.597656 52.921875 136.875 52.921875 131.011719 L 52.921875 67.507812 C 52.921875 61.640625 57.640625 56.921875 63.507812 56.921875 Z M 63.507812 56.921875 "/>
<path style=" stroke:none;fill-rule:nonzero;fill:rgb(25.882354%,25.882354%,25.882354%);fill-opacity:1;" d="M 370.453125 25.167969 C 352.859375 25.167969 338.699219 39.332031 338.699219 56.921875 L 338.699219 141.597656 C 338.699219 159.1875 352.859375 173.351562 370.453125 173.351562 L 455.125 173.351562 C 472.71875 173.351562 486.878906 159.1875 486.878906 141.597656 L 486.878906 56.921875 C 486.878906 39.332031 472.71875 25.167969 455.125 25.167969 Z M 381.035156 56.921875 L 444.542969 56.921875 C 450.40625 56.921875 455.125 61.640625 455.125 67.507812 L 455.125 131.011719 C 455.125 136.875 450.40625 141.597656 444.542969 141.597656 L 381.035156 141.597656 C 375.171875 141.597656 370.453125 136.875 370.453125 131.011719 L 370.453125 67.507812 C 370.453125 61.640625 375.171875 56.921875 381.035156 56.921875 Z M 381.035156 56.921875 "/>
<path style=" stroke:none;fill-rule:nonzero;fill:rgb(25.882354%,25.882354%,25.882354%);fill-opacity:1;" d="M 169.347656 83.382812 L 169.347656 115.136719 L 211.6875 115.136719 L 211.6875 83.382812 Z M 296.363281 83.382812 L 296.363281 115.136719 L 338.699219 115.136719 L 338.699219 83.382812 Z M 296.363281 83.382812 "/>
<path style=" stroke:none;fill-rule:nonzero;fill:rgb(14.901961%,65.098041%,60.392159%);fill-opacity:1;" d="M 175.527344 203.113281 C 175.363281 199.03125 176.871094 195.0625 179.699219 192.117188 C 182.527344 189.171875 186.433594 187.503906 190.515625 187.503906 L 317.527344 187.503906 C 322.933594 187.503906 327.921875 190.414062 330.582031 195.117188 C 333.246094 199.820312 333.171875 205.589844 330.394531 210.226562 L 266.886719 316.066406 C 264.175781 320.585938 259.292969 323.351562 254.023438 323.351562 C 248.753906 323.351562 243.871094 320.585938 241.160156 316.066406 L 177.652344 210.226562 C 176.359375 208.070312 175.628906 205.625 175.527344 203.113281 Z M 217.011719 217.507812 L 254.023438 279.191406 L 291.035156 217.507812 Z M 217.011719 217.507812 "/>
</g>
</svg>

<svg xmlns="http://www.w3.org/2000/svg" width="512pt" height="512pt" viewBox="0 0 512 512"><path d="M52.922 342.7c-17.59 0-31.754 14.16-31.754 31.753v84.672c0 17.594 14.164 31.754 31.754 31.754h84.676c17.59 0 31.75-14.16 31.75-31.754v-84.672c0-17.594-14.16-31.754-31.75-31.754zm10.586 31.753h63.504a10.561 10.561 0 0 1 10.586 10.582v63.508a10.561 10.561 0 0 1-10.586 10.582H63.508a10.559 10.559 0 0 1-10.586-10.582v-63.508a10.559 10.559 0 0 1 10.586-10.582zm0 0M370.453 342.7a31.682 31.682 0 0 0-31.754 31.753v84.672a31.682 31.682 0 0 0 31.754 31.754h84.672a31.682 31.682 0 0 0 31.754-31.754v-84.672a31.682 31.682 0 0 0-31.754-31.754zm10.582 31.753h63.508a10.558 10.558 0 0 1 10.582 10.582v63.508a10.558 10.558 0 0 1-10.582 10.582h-63.508a10.558 10.558 0 0 1-10.582-10.582v-63.508a10.558 10.558 0 0 1 10.582-10.582zm0 0" fill="#424242"/><path d="M211.688 400.914h-42.34v31.754h169.351v-31.754zm0 0M52.922 25.168c-17.59 0-31.754 14.164-31.754 31.754v84.676c0 17.59 14.164 31.754 31.754 31.754h84.676c17.59 0 31.75-14.165 31.75-31.754V56.922c0-17.59-14.16-31.754-31.75-31.754zm10.586 31.754h63.504a10.562 10.562 0 0 1 10.586 10.586v63.504a10.564 10.564 0 0 1-10.586 10.586H63.508a10.562 10.562 0 0 1-10.586-10.586V67.508a10.56 10.56 0 0 1 10.586-10.586zm0 0M370.453 25.168c-17.594 0-31.754 14.164-31.754 31.754v84.676c0 17.59 14.16 31.754 31.754 31.754h84.672c17.594 0 31.754-14.165 31.754-31.754V56.922c0-17.59-14.16-31.754-31.754-31.754zm10.582 31.754h63.508a10.559 10.559 0 0 1 10.582 10.586v63.504a10.561 10.561 0 0 1-10.582 10.586h-63.508a10.561 10.561 0 0 1-10.582-10.586V67.508a10.559 10.559 0 0 1 10.582-10.586zm0 0" fill="#424242"/><path d="M169.348 83.383v31.754h42.34V83.383zm127.015 0v31.754H338.7V83.383zm0 0" fill="#424242"/><path d="M175.527 203.113a15.005 15.005 0 0 1 4.172-10.996 14.999 14.999 0 0 1 10.817-4.613h127.011a15.006 15.006 0 1 1 12.867 22.723l-63.507 105.84a15 15 0 0 1-25.727 0l-63.508-105.84a15.01 15.01 0 0 1-2.125-7.114zm41.485 14.395l37.011 61.683 37.012-61.683zm0 0" fill="#26a69a"/></svg>
